symbols/web/palette/materialsymbolsoutlined/palette_wght600grad200fill1_48px.svg

<svg xmlns="http://www.w3.org/2000/svg" height="48" width="48"><path d="M24 44.95q-4.35 0-8.125-1.65Q12.1 41.65 9.2 38.775q-2.9-2.875-4.525-6.7Q3.05 28.25 3.05 23.95q0-4.4 1.65-8.2 1.65-3.8 4.575-6.65 2.925-2.85 6.8-4.45t8.275-1.6q4.15 0 7.9 1.4t6.575 3.875Q41.65 10.8 43.35 14.25q1.7 3.45 1.7 7.4 0 5.7-3.3 9.15t-8.85 3.45h-3.05q-.9 0-1.475.65-.575.65-.575 1.4 0 .9.55 1.475.55.575.55 1.775 0 1.6-1.575 3.5T24 44.95ZM12.55 25.4q1.05 0 1.825-.775.775-.775.775-1.825 0-1.05-.775-1.825-.775-.775-1.825-.775-1.05 0-1.825.775-.775.775-.775 1.825 0 1.05.775 1.825.775.775 1.825.775Zm6.15-8.35q1.1 0 1.875-.75.775-.75.775-1.85t-.775-1.825Q19.8 11.9 18.75 11.9q-1.1 0-1.825.725-.725.725-.725 1.825t.725 1.85q.725.75 1.775.75Zm10.5 0q1.05 0 1.825-.75.775-.75.775-1.85t-.775-1.825Q30.25 11.9 29.2 11.9q-1.1 0-1.825.725-.725.725-.725 1.825t.725 1.85q.725.75 1.825.75Zm6.4 8.35q1.05 0 1.825-.775.775-.775.775-1.825 0-1.05-.775-1.825-.775-.775-1.825-.775-1.1 0-1.825.775-.725.775-.725 1.825 0 1.05.75 1.825.75.775 1.8.775Z"/></svg>

<svg xmlns="http://www.w3.org/2000/svg" height="48" width="48"><path d="M24 44.95Q19.65 44.95 15.875 43.3Q12.1 41.65 9.2 38.775Q6.3 35.9 4.675 32.075Q3.05 28.25 3.05 23.95Q3.05 19.55 4.7 15.75Q6.35 11.95 9.275 9.1Q12.2 6.25 16.075 4.65Q19.95 3.05 24.35 3.05Q28.5 3.05 32.25 4.45Q36 5.85 38.825 8.325Q41.65 10.8 43.35 14.25Q45.05 17.7 45.05 21.65Q45.05 27.35 41.75 30.8Q38.45 34.25 32.9 34.25H29.85Q28.95 34.25 28.375 34.9Q27.8 35.55 27.8 36.3Q27.8 37.2 28.35 37.775Q28.9 38.35 28.9 39.55Q28.9 41.15 27.325 43.05Q25.75 44.95 24 44.95ZM12.55 25.4Q13.6 25.4 14.375 24.625Q15.15 23.85 15.15 22.8Q15.15 21.75 14.375 20.975Q13.6 20.2 12.55 20.2Q11.5 20.2 10.725 20.975Q9.95 21.75 9.95 22.8Q9.95 23.85 10.725 24.625Q11.5 25.4 12.55 25.4ZM18.7 17.05Q19.8 17.05 20.575 16.3Q21.35 15.55 21.35 14.45Q21.35 13.35 20.575 12.625Q19.8 11.9 18.75 11.9Q17.65 11.9 16.925 12.625Q16.2 13.35 16.2 14.45Q16.2 15.55 16.925 16.3Q17.65 17.05 18.7 17.05ZM29.2 17.05Q30.25 17.05 31.025 16.3Q31.8 15.55 31.8 14.45Q31.8 13.35 31.025 12.625Q30.25 11.9 29.2 11.9Q28.1 11.9 27.375 12.625Q26.65 13.35 26.65 14.45Q26.65 15.55 27.375 16.3Q28.1 17.05 29.2 17.05ZM35.6 25.4Q36.65 25.4 37.425 24.625Q38.2 23.85 38.2 22.8Q38.2 21.75 37.425 20.975Q36.65 20.2 35.6 20.2Q34.5 20.2 33.775 20.975Q33.05 21.75 33.05 22.8Q33.05 23.85 33.8 24.625Q34.55 25.4 35.6 25.4Z"/></svg>
